X: 28859
T: Mympwy Corris
R: polka
M: 2/4
K: Gmajor
g2 d>c|Bd BG|FA DF|GF ED|
g2 d>c|Bd BG|FA DF|G2 G:|
BD G>D|cE G>E|D>F Ac|Bd BG|
B,D G2|CE A2|DA dF|G2 G2|
fa fd|gb e2|ag fe|^c Ag|
fa df|gb da/b/|c'a f/e/d|g2- g||

